**kern	**kern
*part1	*part1
*staff2	*staff1
*I"Piano	*
*clefF4	*clefG2
*k[f#]	*k[f#]
=1	=1
4r	4b^^
=	=
4E 4e	8g^^L
.	8b^^J
*clefG2	*
8eL 8g	4ee^^
8BJ	.
4e 4g	4b^^
*clefF4	*
=	=
4E 4e	2ee^^
*clefG2	*
8eL 8g	.
8BJ	.
4e 4g	4ff#^^
*clefF4	*
=	=
.	8qee/
8EL 8B	8.gg^^L
8eJ	.
.	16ff#^^Jk
8g	8ee^^
8r	8r
4BB 4A#X	4e^^ 4g 4cc#X
=	=
4BB 4B	8d#X^^L 8f# 8b
.	8dd#X^^J
*clefG2	*
8d#XL 8f#	4ff#^^
8BJ	.
4d# 4f#	4a^^
*clefF4	*
=	=
4BB 4B	2cc^^
*clefG2	*
8f#L 8a	.
8BJ	.
4f# 4a	4b^^
*clefF4	*
=	=
*^	*
8.EL	4.E	8.g^^L
16GJk	.	16f#^^Jk
8B	.	8e^^
*v	*v	*
8r	8r
*^	*
4G 4B-X	4CC 4C	8e^^^
.	.	8r
*v	*v	*
=	=
*-	*-
!!!system-decoration: {(s1,s2)}
